spyder/images/dark/horsplit.svg

<svg xmlns="http://www.w3.org/2000/svg" width="24" height="24" fill="none"><path fill="#FAFAFA" fill-rule="evenodd" d="M3 6v12h18V6H3Zm2 2h6v8H5V8Zm14 0h-6v8h6V8Z" clip-rule="evenodd"/></svg>

<svg width="24" height="24" viewBox="0 0 24 24" fill="none" xmlns="http://www.w3.org/2000/svg">
<path fill-rule="evenodd" clip-rule="evenodd" d="M3 6V18H21V6H3ZM5 8H11V16H5V8ZM19 8H13V16H19V8Z" fill="#FAFAFA"/>
</svg>
